X:1
T:Title
%%score { ( 1 3 ) | ( 2 4 ) }
L:1/8
M:4/4
K:Eb
V:1 treble nm="Grand Piano"
V:3 treble 
V:2 bass 
V:4 bass 
V:1
 z4 z2[Q:1/4=100] [B,EG]2 | [EGB]3 [EGB] [B,EG]2 [EGB]2 | [CAe]3 [EAc] [EGB]2 [B,EG]2 | %3
 [EGB]3 [B,GB] E-[EF] [G,E]2 |[M:3/4] [B,DB]6 |[M:1/4] [B,EG]2 | %6
[M:4/4] [EGB]3 [EGB] [B,EG]2 [EGB]2 | [CAe]3 [EAc] [EGB]2 [B,EG]2 | %8
 [EGB]3 [B,GB] [B,EG]2 .[B,DF]2 |[M:3/4] [G,E]6 |[M:1/4] [B,EG][B,GB] | %11
[M:4/4] [Ge]2 [Ge][GB] [Ac][GB][EG][GB] | [Ge]2 [Ge]>[Ac] [GB]2 E>F | G2 G>G [Ac][GB] [GB]>[EG] | %14
 [DF]6 (3B,-[B,G][B,GB] | [Ge]2 [Ge][GB] [Ac][GB] (3[EG][FA][GB] | %16
 [Ge]2 [Ge]>[Ac] [GB]2 [G,E]>[A,EF] | [B,EG]3 [CEA] [B,EG]2 [A,DF]2 | [G,E]6 z2 |] %19
V:2
 z4 z2 E,2 | E,3 E, E,2 E,2 | A,,3 A,, E,2 E,2 | E,3 E, z A, E,2 |[M:3/4] B,,6 |[M:1/4] E,2 | %6
[M:4/4] E,3 E, E,2 E,2 | A,,3 A,, E,2 E,2 | E,3 E, B,,2 z A, |[M:3/4] E,6 |[M:1/4] E,E, | %11
[M:4/4] [E,B,]2 [E,B,][E,E] [E,E][E,E][E,B,][E,B,] | [E,B,]2 [E,B,]>[E,E] [E,E]2 [E,G,]>[E,A,E] | %13
 [E,B,E]2 [E,B,E]>[E,B,E] [E,E][E,E] [E,E]>[E,B,] | z2 B,2 B,2 z2 | %15
 [E,B,]2 [E,B,][E,E] [E,E][E,E] (3[E,B,][E,B,][E,E] | [E,B,]2 [E,B,]>[E,E] [E,E]2 E,>E, | %17
 E,3 A,, B,,2 B,,2 | E,6 z2 |] %19
V:3
 x8 | x8 | x8 | z4 .[B,G]2 z2 |[M:3/4] x6 |[M:1/4] x2 |[M:4/4] x8 | x8 | x8 |[M:3/4] x6 | %10
[M:1/4] x2 |[M:4/4] x8 | x8 | x8 | z4 z2 E2 | x8 | x8 | x8 | x8 |] %19
V:4
 x8 | x8 | x8 | z4 E,2 z2 |[M:3/4] x6 |[M:1/4] x2 |[M:4/4] x8 | x8 | z4 z2 B,,2 |[M:3/4] x6 | %10
[M:1/4] x2 |[M:4/4] x8 | x8 | x8 | [B,,B,]2 z C z A, (3G,E,E, | x8 | x8 | x8 | x8 |] %19

